SVG_Azure_All/Function App Advanced Tool.svg

<?xml version="1.0" encoding="UTF-8" standalone="no"?>
<!-- Generated by Microsoft Visio, SVG Export Function App Advanced Tool.svg Page-1 -->

<svg
   xmlns:dc="http://purl.org/dc/elements/1.1/"
   xmlns:cc="http://creativecommons.org/ns#"
   xmlns:rdf="http://www.w3.org/1999/02/22-rdf-syntax-ns#"
   xmlns:svg="http://www.w3.org/2000/svg"
   xmlns="http://www.w3.org/2000/svg"
   xmlns:sodipodi="http://sodipodi.sourceforge.net/DTD/sodipodi-0.dtd"
   xmlns:inkscape="http://www.inkscape.org/namespaces/inkscape"
   width="0.62986505in"
   height="0.78735679in"
   viewBox="0 0 45.350027 56.69"
   xml:space="preserve"
   class="st7"
   version="1.1"
   id="svg55"
   sodipodi:docname="Function App Advanced Tool.svg"
   style="font-size:12px;overflow:visible;color-interpolation-filters:sRGB;fill:none;fill-rule:evenodd;stroke-linecap:square;stroke-miterlimit:3"
   inkscape:version="0.92.5 (2060ec1f9f, 2020-04-08)"><metadata
   id="metadata59"><rdf:RDF><cc:Work
       rdf:about=""><dc:format>image/svg+xml</dc:format><dc:type
         rdf:resource="http://purl.org/dc/dcmitype/StillImage" /></cc:Work></rdf:RDF></metadata><sodipodi:namedview
   pagecolor="#ffffff"
   bordercolor="#666666"
   borderopacity="1"
   objecttolerance="10"
   gridtolerance="10"
   guidetolerance="10"
   inkscape:pageopacity="0"
   inkscape:pageshadow="2"
   inkscape:window-width="640"
   inkscape:window-height="480"
   id="namedview57"
   showgrid="false"
   inkscape:zoom="1.4193119"
   inkscape:cx="30.235833"
   inkscape:cy="37.786193"
   inkscape:window-x="0"
   inkscape:window-y="0"
   inkscape:window-maximized="0"
   inkscape:current-layer="svg55" />
	<style
   type="text/css"
   id="style2">
	<![CDATA[
		.st1 {fill:#005ba1;stroke:none;stroke-linecap:butt;stroke-width:34}
		.st2 {fill:#0078d4;stroke:none;stroke-linecap:butt;stroke-width:34}
		.st3 {fill:url(#grad0-10);stroke:none;stroke-linecap:butt;stroke-width:34}
		.st4 {fill:url(#grad0-14);stroke:none;stroke-linecap:butt;stroke-width:34}
		.st5 {fill:#ffffff;fill-opacity:0.6;stroke:none;stroke-linecap:butt;stroke-width:34}
		.st6 {fill:#ffffff;fill-opacity:0.5;stroke:none;stroke-linecap:butt;stroke-width:34}
		.st7 {fill:none;fill-rule:evenodd;font-size:12px;overflow:visible;stroke-linecap:square;stroke-miterlimit:3}
	]]>
	</style>

	<defs
   id="Patterns_And_Gradients">
		<linearGradient
   id="grad0-10"
   x1="-1.0883175e-06"
   y1="40.431875"
   x2="33.697191"
   y2="40.431875"
   gradientTransform="scale(0.59441158,1.682336)"
   gradientUnits="userSpaceOnUse">
			<stop
   offset="0"
   stop-color="#0078d4"
   stop-opacity="1"
   id="stop4" />
			<stop
   offset="1"
   stop-color="#83b9f9"
   stop-opacity="1"
   id="stop6" />
		</linearGradient>
		<linearGradient
   id="grad0-14"
   x1="0"
   y1="28.596789"
   x2="23.833461"
   y2="28.596789"
   gradientTransform="scale(0.42041737,2.3785887)"
   gradientUnits="userSpaceOnUse">
			<stop
   offset="0"
   stop-color="#5ea0ef"
   stop-opacity="1"
   id="stop9" />
			<stop
   offset="1"
   stop-color="#83b9f9"
   stop-opacity="1"
   id="stop11" />
		</linearGradient>
	</defs>
	<g
   id="g53"
   transform="translate(-34.000632,-34.0043)">
		<title
   id="title15">Page-1</title>
		<g
   id="group4471-1"
   transform="translate(34,-34.0157)">
			<title
   id="title17">Function App Advanced Tool</title>
			<g
   id="group4472-2">
				<title
   id="title19">Sheet.4472</title>
				<g
   id="shape4473-3"
   transform="translate(11.9652,-46.4031)">
					<title
   id="title21">Sheet.4473</title>
					<path
   d="M 29.44,124.71 H 0 v -3.81 h 29.44 a 2.41511,2.48189 0 0 1 0.95,0.2 l 2.63,1.14 a 0.594582,0.611024 0 0 1 0,1.12756 L 30.39,124.51 a 2.47027,2.53858 0 0 1 -0.95,0.2 z"
   class="st1"
   id="path23"
   inkscape:connector-curvature="0"
   style="fill:#005ba1;stroke:none;stroke-width:34;stroke-linecap:butt" />
				</g>
				<g
   id="shape4474-5"
   transform="translate(13.1758,-14.5953)">
					<title
   id="title26">Sheet.4474</title>
					<path
   d="m 28.45,116.94 2.43,6.17 a 1.16158,1.1937 0 0 1 -1.36,1.6 l -6.71,-1.72 a 3.35295,3.44567 0 0 1 -1.56,-0.91 L 0,100.25 6.3,93.78 27.72,115.79 a 3.40505,3.49921 0 0 1 0.73,1.15 z"
   class="st2"
   id="path28"
   inkscape:connector-curvature="0"
   style="fill:#0078d4;stroke:none;stroke-width:34;stroke-linecap:butt" />
				</g>
				<g
   id="shape4475-7">
					<title
   id="title31">Sheet.4475</title>
					<path
   d="m 0,114.41 a 10.0177,10.2963 -180 0 0 10.02,10.3 10.0177,10.2963 -180 0 0 10.01,-10.3 V 78.31 A 10.0177,10.2963 -180 0 0 10.02,68.02 10.0177,10.2963 -180 0 0 0,78.31 Z"
   class="st3"
   id="path33"
   inkscape:connector-curvature="0"
   style="fill:url(#grad0-10);stroke:none;stroke-width:34;stroke-linecap:butt" />
				</g>
				<g
   id="shape4476-11"
   transform="translate(10.0159)">
					<title
   id="title36">Sheet.4476</title>
					<path
   d="M 0,124.71 V 68.02 a 10.019,10.2961 0 0 1 10.02,10.29 v 36.1 A 10.019,10.2961 0 0 1 0,124.71 Z"
   class="st4"
   id="path38"
   inkscape:connector-curvature="0"
   style="fill:url(#grad0-14);stroke:none;stroke-width:34;stroke-linecap:butt" />
				</g>
				<g
   id="shape4477-15"
   transform="translate(5.70063,-42.4315)">
					<title
   id="title41">Sheet.4477</title>
					<ellipse
   cx="4.31532"
   cy="120.274"
   rx="4.31532"
   ry="4.4346499"
   class="st5"
   id="ellipse43"
   style="fill:#ffffff;fill-opacity:0.6;stroke:none;stroke-width:34;stroke-linecap:butt" />
				</g>
				<g
   id="shape4478-17"
   transform="translate(10.0159,-42.4315)">
					<title
   id="title46">Sheet.4478</title>
					<path
   d="M 4.32,120.27 A 4.31532,4.43465 0 0 1 0,124.71 v -8.87 a 4.31532,4.43465 0 0 1 4.32,4.43 z"
   class="st6"
   id="path48"
   inkscape:connector-curvature="0"
   style="fill:#ffffff;fill-opacity:0.5;stroke:none;stroke-width:34;stroke-linecap:butt" />
				</g>
			</g>
		</g>
	</g>
</svg>

<?xml version="1.0" encoding="UTF-8" standalone="no"?>
<!DOCTYPE svg PUBLIC "-//W3C//DTD SVG 1.1//EN" "http://www.w3.org/Graphics/SVG/1.1/DTD/svg11.dtd">
<!-- Generated by Microsoft Visio, SVG Export Function App Advanced Tool.svg Page-1 -->
<svg xmlns="http://www.w3.org/2000/svg" xmlns:xlink="http://www.w3.org/1999/xlink" xmlns:ev="http://www.w3.org/2001/xml-events"
		width="1.57437in" height="1.73206in" viewBox="0 0 113.354 124.709" xml:space="preserve" color-interpolation-filters="sRGB"
		class="st7">
	<style type="text/css">
	<![CDATA[
		.st1 {fill:#005ba1;stroke:none;stroke-linecap:butt;stroke-width:34}
		.st2 {fill:#0078d4;stroke:none;stroke-linecap:butt;stroke-width:34}
		.st3 {fill:url(#grad0-10);stroke:none;stroke-linecap:butt;stroke-width:34}
		.st4 {fill:url(#grad0-14);stroke:none;stroke-linecap:butt;stroke-width:34}
		.st5 {fill:#ffffff;fill-opacity:0.6;stroke:none;stroke-linecap:butt;stroke-width:34}
		.st6 {fill:#ffffff;fill-opacity:0.5;stroke:none;stroke-linecap:butt;stroke-width:34}
		.st7 {fill:none;fill-rule:evenodd;font-size:12px;overflow:visible;stroke-linecap:square;stroke-miterlimit:3}
	]]>
	</style>

	<defs id="Patterns_And_Gradients">
		<linearGradient id="grad0-10" x1="0" y1="0" x2="1" y2="0" gradientTransform="rotate(-90 0.5 0.5)">
			<stop offset="0" stop-color="#0078d4" stop-opacity="1"/>
			<stop offset="1" stop-color="#83b9f9" stop-opacity="1"/>
		</linearGradient>
		<linearGradient id="grad0-14" x1="0" y1="0" x2="1" y2="0" gradientTransform="rotate(-90 0.5 0.5)">
			<stop offset="0" stop-color="#5ea0ef" stop-opacity="1"/>
			<stop offset="1" stop-color="#83b9f9" stop-opacity="1"/>
		</linearGradient>
	</defs>
	<g>
		<title>Page-1</title>
		<g id="group4374-1" transform="translate(34,-34.0157)">
			<title>Function App Advanced Tool</title>
			<g id="group4375-2">
				<title>Sheet.4375</title>
				<g id="shape4376-3" transform="translate(11.9652,-46.4031)">
					<title>Sheet.4376</title>
					<path d="M29.44 124.71 L0 124.71 L0 120.9 L29.44 120.9 A2.41511 2.48189 0 0 1 30.39 121.1 L33.02 122.24 a0.594582
								 0.611024 0 0 1 -1.42109E-14 1.12756 L30.39 124.51 A2.47027 2.53858 0 0 1 29.44 124.71 Z"
							class="st1"/>
				</g>
				<g id="shape4377-5" transform="translate(13.1758,-14.5953)">
					<title>Sheet.4377</title>
					<path d="M28.45 116.94 L30.88 123.11 A1.16158 1.1937 0 0 1 29.52 124.71 L22.81 122.99 A3.35295 3.44567 0 0 1
								 21.25 122.08 L0 100.25 L6.3 93.78 L27.72 115.79 A3.40505 3.49921 0 0 1 28.45 116.94 Z" class="st2"/>
				</g>
				<g id="shape4378-7">
					<title>Sheet.4378</title>
					<path d="M-0 114.41 A10.0177 10.2963 -180 0 0 10.02 124.71 A10.0177 10.2963 -180 0 0 20.03 114.41 L20.03 78.31
								 A10.0177 10.2963 -180 0 0 10.02 68.02 A10.0177 10.2963 -180 0 0 0 78.31 L0 114.41 Z" class="st3"/>
				</g>
				<g id="shape4379-11" transform="translate(10.0159,1.42109E-14)">
					<title>Sheet.4379</title>
					<path d="M0 124.71 L0 68.02 A10.019 10.2961 0 0 1 10.02 78.31 L10.02 114.41 A10.019 10.2961 0 0 1 0 124.71 Z"
							class="st4"/>
				</g>
				<g id="shape4380-15" transform="translate(5.70063,-42.4315)">
					<title>Sheet.4380</title>
					<ellipse cx="4.31532" cy="120.274" rx="4.31532" ry="4.43465" class="st5"/>
				</g>
				<g id="shape4381-17" transform="translate(10.0159,-42.4315)">
					<title>Sheet.4381</title>
					<path d="M4.32 120.27 A4.31532 4.43465 0 0 1 0 124.71 L0 115.84 A4.31532 4.43465 0 0 1 4.32 120.27 Z"
							class="st6"/>
				</g>
			</g>
		</g>
	</g>
</svg>
